X: 815
T: Gelse O Şûh Meclise
C: Hâfız Post
O: Turkey
F: http://compmusic.upf.edu/node/140
N: rast--yuruksemai--yuruksemai--gelse_o_suh--hafiz_post
N: makam= rast
N: form= yuruksemai
N: usul= yuruksemai = 6/8
M: 6/8
L: 1/16
K: C _1/4B ^f  
Q: 1/4=104
%%MIDI tuningsystem comma53
G8 A4G2F2 G8  | G4d2c2 B2A2B2c2 d8  | \
w:  Gel se  o  *  şuh   |  *  mec *  *  *  li *  se   | 
d4g4 =f2e2e2d2 dcded2c2  | 
w:  naz_ *  ü  *  te *  ga  | 
B4c2d2 c2B2A4 B3AB2c2  | B3AG4 A4G2F2 G8  | \
w:  fül  ey *  *  *  le se    |  *  *  Gel se  o  *  şûh   | 
G4d2c2 B2A2B2c2 d8  | 
w:  *  mec *  *  *  li *  se   | 
d4g4 =f2e2e2d2 dcded2c2  | B4c2d2 c2B2A4 B3AB2c2  | 
w:  naz_ *  ü  *  te *  ga  |  fül  ey *  *  *  le se    | 
B3AG4 G4G4 d8  | e4d4 c4d4 c4B4  | c4B4 A4G4 A2c2B2A2  | \
w:  *  *  Tir  ye  le  lel   |  le  le  le  le  le  le   |  le  le  le  le  lel   | 
A4A2B2 A2G2F2E2 D8  | 
w:  li    | 
G4G4 G4A2B2 G8  | A8 c4B2A2 G8  | A8 G4A4 B4A2G2  | \
w:  Ca nım  ye  le  *  lel   |  lel  le  le  *  lel   |  le  le  le  lel   | 
F4G8D2EF G8  | 
w:  li   *  SAZ  | 
G8 A4G2F2 G8  | G4d2c2 B2A2B2c2 d8  | \
w:  Gel se  o  *  şuh   |  *  mec *  *  *  li *  se   | 
d4g4 =f2e2e2d2 dcded2c2  | 
w:  naz_ *  ü  *  te *  ga  | 
B4c2d2 c2B2A4 B3AB2c2  | B3AG4 A4G2F2 G8  | \
w:  fül  ey *  *  *  le se    |  *  *  Gel se  o  *  şûh   | 
G4d2c2 B2A2B2c2 d8  | 
w:  *  mec *  *  *  li *  se   | 
d4g4 =f2e2e2d2 dcded2c2  | B4c2d2 c2B2A4 B3AB2c2  | 
w:  naz_ *  ü  *  te *  ga  |  fül  ey *  *  *  le se    | 
B3AG4 G4G4 d8  | e4d4 c4d4 c4B4  | c4B4 A4G4 A2c2B2A2  | \
w:  *  *  Tir  ye  le  lel   |  le  le  le  le  le  le   |  le  le  le  le  lel   | 
A4A2B2 A2G2F2E2 D8  | 
w:  li    | 
G4G4 G4A2B2 G8  | A8 c4B2A2 G8  | A8 G4A4 B4A2G2  | \
w:  Ca nım  ye  le  *  lel   |  lel  le  le  *  lel   |  le  le  le  lel   | 
F4G8d2ef g8  | 
w:  li   *  SAZ  | 
d8 g4g2f2 g8  | f2g2a8g2f2 f3ef2g2  | \
w:  Tan  *  ger_ *  i   |  ri *  ya zı  *  huld   | 
f4f4 f4f2^e2 f8  | e2f2g8f2e2 d8  | 
w:  *  o lur_ i *  di   |  vü *  cuh_ i *  le    | 
d8 g4g2f2 g8  | f2g2a8g2f2 f3ef2g2  | \
w:  Tan  *  ger_ *  i   |  ri *  ya zı  *  huld   | 
f4f4 f4f2^e2 f8  | e2f2g8f2e2 d8  | 
w:  *  o lur_ i *  di   |  vü *  cuh_ i *  le    | 
z4d4 d4d4 g4z4  | a4g4 f4g4 ^2/4f4e4  | \
w:  Tir  ye  le  lel   |  le  le  le  le  le  le   | 
=f4e4 d4c4 d2f2e2d2  | d6e2 d2c2B2A2 G8  | 
w:  le  le  le  le  lel   |  li    | 
G4G4 G4A2B2 G8  | A8 c4B2A2 G8  | A8 G4A4 B4A2G2  | \
w:  Ca nım  ye  le  *  lel   |  le  le  le  *  lel   |  le  le  le  lel   | 
F4G6D2E2F2 G8  | 
w:  li    | 
G8 A4G2F2 G8  | G4d2c2 B2A2B2c2 d8  | \
w:  Â şık_ ı  *  zâr_  |  ı  gül *  *  *  şe *  ni   | 
d4g4 =f2e2e2d2 dcded2c2  | 
w:  vas *  lı *  na  *  bül  | 
B4c2d2 c2B2A4 B3AB2c2  | B3AG4 A4G2F2 G8  | \
w:  bül  ey *  *  *  le se    |  *  *  Â şık_ ı  *  zâr_  | 
G4d2c2 B2A2B2c2 d8  | 
w:  ı  gül *  *  *  şe *  ni   | 
d4g4 =f2e2e2d2 dcded2c2  | B4c2d2 c2B2A4 B3AB2c2  | 
w:  vas *  lı *  na  *  bül  |  bül_ ey *  *  *  le se    | 
B3AG4 G4G4 d8  | e4d4 c4d4 c4B4  | c4B4 A4G4 A2c2B2A2  | \
w:  *  *  Tir  ye  le  lel   |  le  le  le  le  le  le   |  le  le  le  le  lel   | 
A4A2B2 A2G2F2E2 D8  | 
w:  li    | 
G4G4 G4A2B2 G8  | A8 c4B2A2 G8  | A8 G4A4 B4A2G2  | \
w:  Ca nım  ye  le  *  lel   |  lel  le  le  *  lel   |  le  le  le  lel   | 
F4G8z8z4  | 
w:  li    | 
|


